X:1
T:Theme Song from Titanic
M:C
L:1/8
Q:80
C:Traditional
S:Slow Air
O:|
K:HP
|:{g}de|{g}(f4f)g{a} fd|{g}e/2(a3/2a4) fe|{g} d2 (B4B)d/2B/2|{G}A8 |
{fgf}(f4f2) g{a}d|{g}e/2(a3/2a4) fa|B6 {g}fd|{gef}e6 |
